priv/static/svgs/icons_new/text-bold.svg

<svg width="32" height="32" viewBox="0 0 32 32" fill="none" xmlns="http://www.w3.org/2000/svg">
<path d="M12.8262 10.4616V9.96155H12.3262V10.4616H12.8262ZM12.8262 13.9231H12.3262V14.4231H12.8262V13.9231ZM12.8262 18.0769V17.5769H12.3262V18.0769H12.8262ZM12.8262 21.5385H12.3262V22.0385H12.8262V21.5385ZM19.9214 15.7941L19.6346 15.3846C19.4889 15.4865 19.4084 15.6582 19.4231 15.8353C19.4377 16.0125 19.5453 16.1686 19.7058 16.2453L19.9214 15.7941ZM12.8262 10.9616H16.7375V9.96155H12.8262V10.9616ZM16.7375 13.4231H12.8262V14.4231H16.7375V13.4231ZM13.3262 13.9231V10.4616H12.3262V13.9231H13.3262ZM17.9683 12.1923C17.9683 12.8721 17.4172 13.4231 16.7375 13.4231V14.4231C17.9695 14.4231 18.9683 13.4243 18.9683 12.1923H17.9683ZM16.7375 10.9616C17.4172 10.9616 17.9683 11.5126 17.9683 12.1923H18.9683C18.9683 10.9603 17.9695 9.96155 16.7375 9.96155V10.9616ZM12.8262 18.5769H16.7375V17.5769H12.8262V18.5769ZM16.7375 21.0385H12.8262V22.0385H16.7375V21.0385ZM13.3262 21.5385V18.0769H12.3262V21.5385H13.3262ZM17.9683 19.8077C17.9683 20.4874 17.4172 21.0385 16.7375 21.0385V22.0385C17.9695 22.0385 18.9683 21.0397 18.9683 19.8077H17.9683ZM16.7375 18.5769C17.4172 18.5769 17.9683 19.128 17.9683 19.8077H18.9683C18.9683 18.5757 17.9695 17.5769 16.7375 17.5769V18.5769ZM17.0577 6.5H10.0051V7.5H17.0577V6.5ZM8.7998 7.69231V24.3077H9.7998V7.69231H8.7998ZM10.0051 25.5H17.763V24.5H10.0051V25.5ZM8.7998 24.3077C8.7998 24.9749 9.3482 25.5 10.0051 25.5V24.5C9.88292 24.5 9.7998 24.4052 9.7998 24.3077H8.7998ZM10.0051 6.5C9.3482 6.5 8.7998 7.02512 8.7998 7.69231H9.7998C9.7998 7.5948 9.88292 7.5 10.0051 7.5V6.5ZM21.4945 11.8462C21.4945 13.3022 20.7637 14.5939 19.6346 15.3846L20.2082 16.2037C21.5889 15.2369 22.4945 13.647 22.4945 11.8462H21.4945ZM17.0577 7.5C19.5169 7.5 21.4945 9.45456 21.4945 11.8462H22.4945C22.4945 8.88487 20.0516 6.5 17.0577 6.5V7.5ZM22.1998 20.1538C22.1998 22.5454 20.2221 24.5 17.763 24.5V25.5C20.7568 25.5 23.1998 23.1151 23.1998 20.1538H22.1998ZM19.7058 16.2453C21.187 16.9532 22.1998 18.4407 22.1998 20.1538H23.1998C23.1998 18.0336 21.9456 16.2074 20.137 15.343L19.7058 16.2453Z" fill="black"/>
</svg>

<svg width="32" height="32" viewBox="0 0 32 32" fill="none" xmlns="http://www.w3.org/2000/svg">
  <symbol id="item" viewBox="0 0 32 32"  fill="none">
    <path d="M12.826 10.462v-.5h-.5v.5h.5Zm0 3.461h-.5v.5h.5v-.5Zm0 4.154v-.5h-.5v.5h.5Zm0 3.461h-.5v.5h.5v-.5Zm7.095-5.744-.286-.41a.5.5 0 0 0 .07.861l.216-.45Zm-7.095-4.832h3.912v-1h-3.912v1Zm3.912 2.461h-3.912v1h3.912v-1Zm-3.412.5v-3.461h-1v3.461h1Zm4.642-1.73c0 .68-.55 1.23-1.23 1.23v1a2.23 2.23 0 0 0 2.23-2.23h-1Zm-1.23-1.231c.68 0 1.23.55 1.23 1.23h1a2.23 2.23 0 0 0-2.23-2.23v1Zm-3.912 7.615h3.912v-1h-3.912v1Zm3.912 2.461h-3.912v1h3.912v-1Zm-3.412.5v-3.461h-1v3.461h1Zm4.642-1.73c0 .68-.55 1.23-1.23 1.23v1a2.23 2.23 0 0 0 2.23-2.23h-1Zm-1.23-1.231c.68 0 1.23.551 1.23 1.23h1a2.23 2.23 0 0 0-2.23-2.23v1Zm.32-12.077h-7.053v1h7.053v-1ZM8.8 7.692v16.616h1V7.692h-1ZM10.005 25.5h7.758v-1h-7.758v1ZM8.8 24.308c0 .667.548 1.192 1.205 1.192v-1a.2.2 0 0 1-.205-.192h-1ZM10.005 6.5c-.657 0-1.205.525-1.205 1.192h1a.2.2 0 0 1 .205-.192v-1Zm11.49 5.346c0 1.456-.731 2.748-1.86 3.539l.573.819a5.314 5.314 0 0 0 2.287-4.358h-1ZM17.057 7.5c2.459 0 4.436 1.955 4.436 4.346h1c0-2.961-2.442-5.346-5.436-5.346v1ZM22.2 20.154c0 2.391-1.978 4.346-4.437 4.346v1c2.994 0 5.437-2.385 5.437-5.346h-1Zm-2.494-3.909c1.481.708 2.494 2.196 2.494 3.909h1c0-2.12-1.254-3.947-3.063-4.811l-.431.902Z" fill="currentColor"/>
  </symbol>
</svg>
